build/img/01.svg

<svg width="106" height="84" viewBox="0 0 106 84" fill="none" xmlns="http://www.w3.org/2000/svg">
<path d="M87.5607 80.0002V81.0002H88.5607H103.156H104.156V80.0002V4.40019V3.40019H103.156H88.5607H88.2837L88.0462 3.5427L73.8712 12.0477L73.3857 12.339V12.9052V28.6552V30.4439L74.9094 29.5071L87.5607 21.7289V80.0002ZM15.4312 5.46956L15.9187 6.34269L15.4312 5.46957C11.0695 7.9049 7.66345 11.3109 5.22812 15.6727C2.78716 20.0446 1.58374 25.1178 1.58374 30.8602V53.5402C1.58374 59.2826 2.78716 64.3558 5.22812 68.7277C7.66345 73.0895 11.0695 76.4955 15.4312 78.9308C19.8031 81.3718 24.8763 82.5752 30.6187 82.5752C36.3612 82.5752 41.4344 81.3718 45.8062 78.9308C50.168 76.4955 53.574 73.0895 56.0094 68.7277C58.4503 64.3558 59.6537 59.2826 59.6537 53.5402V30.8602C59.6537 25.1178 58.4503 20.0446 56.0094 15.6727C53.574 11.3109 50.168 7.9049 45.8062 5.46957C41.4344 3.02862 36.3612 1.8252 30.6187 1.8252C24.8763 1.8252 19.8031 3.02862 15.4312 5.46956ZM36.938 65.3825C35.0723 66.4762 32.974 67.0302 30.6187 67.0302C28.2635 67.0302 26.1652 66.4762 24.2995 65.3825C22.417 64.279 20.9299 62.7919 19.8264 60.9095C18.7327 59.0437 18.1787 56.9455 18.1787 54.5902V29.7052C18.1787 27.3499 18.7327 25.2516 19.8264 23.3859C20.9299 21.5035 22.417 20.0164 24.2995 18.9129C26.1652 17.8192 28.2635 17.2652 30.6187 17.2652C32.974 17.2652 35.0723 17.8192 36.938 18.9129C38.8205 20.0164 40.3075 21.5035 41.411 23.3859C42.5048 25.2516 43.0587 27.3499 43.0587 29.7052V54.5902C43.0587 56.9455 42.5048 59.0437 41.411 60.9095C40.3075 62.7919 38.8205 64.279 36.938 65.3825Z" stroke="#FFCC24" stroke-width="2"/>
</svg>

<?xml version="1.0" encoding="utf-8"?>
<!-- Generator: Adobe Illustrator 26.3.1, SVG Export Plug-In . SVG Version: 6.00 Build 0)  -->
<svg version="1.1" id="Слой_1" xmlns="http://www.w3.org/2000/svg" xmlns:xlink="http://www.w3.org/1999/xlink" x="0px" y="0px"
	 viewBox="0 0 106 84" style="enable-background:new 0 0 106 84;" xml:space="preserve">
<style type="text/css">
	.st0{fill:#FFFFFF;stroke:#FFCC24;stroke-width:2;}
</style>
<path class="st0" d="M87.6,80v1h1h14.6h1v-1V4.4v-1h-1H88.6h-0.3L88,3.5L73.9,12l-0.5,0.3v0.6v15.7v1.8l1.5-0.9l12.7-7.8V80z
	 M15.4,5.5l0.5,0.9L15.4,5.5c-4.4,2.4-7.8,5.8-10.2,10.2C2.8,20,1.6,25.1,1.6,30.9v22.7c0,5.7,1.2,10.8,3.6,15.2
	c2.4,4.4,5.8,7.8,10.2,10.2c4.4,2.4,9.4,3.6,15.2,3.6c5.7,0,10.8-1.2,15.2-3.6c4.4-2.4,7.8-5.8,10.2-10.2c2.4-4.4,3.6-9.4,3.6-15.2
	V30.9c0-5.7-1.2-10.8-3.6-15.2c-2.4-4.4-5.8-7.8-10.2-10.2C41.4,3,36.4,1.8,30.6,1.8C24.9,1.8,19.8,3,15.4,5.5z M36.9,65.4
	c-1.9,1.1-4,1.6-6.3,1.6c-2.4,0-4.5-0.6-6.3-1.6c-1.9-1.1-3.4-2.6-4.5-4.5c-1.1-1.9-1.6-4-1.6-6.3V29.7c0-2.4,0.6-4.5,1.6-6.3
	c1.1-1.9,2.6-3.4,4.5-4.5c1.9-1.1,4-1.6,6.3-1.6c2.4,0,4.5,0.6,6.3,1.6c1.9,1.1,3.4,2.6,4.5,4.5c1.1,1.9,1.6,4,1.6,6.3v24.9
	c0,2.4-0.6,4.5-1.6,6.3C40.3,62.8,38.8,64.3,36.9,65.4z"/>
</svg>
